X:61
T:Mar. Hills
T:Culcairn's Strathspey
% Called Marr Hills in Petrie's first collection
S:Petrie's Third Collection of Strathspey Reels and Country Dances &c.
Z:Steve Wyrick <sjwyrick'at'gmail'dot'com>, 7/31/05
N:Petrie's Third Collection, page 24
L:1/8
M:C
R:Strathspey
K:G
G>Bd>B d<gd<B|G>Bd>B dg TB2|G>Bd>B d<gd<B|e>fg<e dB\{B\}A2:|
|:g>ag>e d<gd<B|g>ag<e dg TB2|g>ag<e d>eg<a|b/a/g/f/ge d<BBg:|]
